src/assets/img/icons/duotone-icons/Layout/Layout-right-panel-2.svg

<?xml version="1.0" encoding="UTF-8"?>
<svg width="24px" height="24px" viewBox="0 0 24 24" version="1.1" xmlns="http://www.w3.org/2000/svg" xmlns:xlink="http://www.w3.org/1999/xlink">
    <!-- Generator: Sketch 52.2 (67145) - http://www.bohemiancoding.com/sketch -->
    <title>Stockholm-icons / Layout / Layout-right-panel-2</title>
    <desc>Created with Sketch.</desc>
    <g id="Stockholm-icons-/-Layout-/-Layout-right-panel-2" stroke="none" stroke-width="1" fill="none" fill-rule="evenodd">
        <rect id="bound" x="0" y="0" width="24" height="24"></rect>
        <path d="M10.5,5 L20.5,5 C21.3284271,5 22,5.67157288 22,6.5 L22,9.5 C22,10.3284271 21.3284271,11 20.5,11 L10.5,11 C9.67157288,11 9,10.3284271 9,9.5 L9,6.5 C9,5.67157288 9.67157288,5 10.5,5 Z M10.5,13 L20.5,13 C21.3284271,13 22,13.6715729 22,14.5 L22,17.5 C22,18.3284271 21.3284271,19 20.5,19 L10.5,19 C9.67157288,19 9,18.3284271 9,17.5 L9,14.5 C9,13.6715729 9.67157288,13 10.5,13 Z" id="Combined-Shape" fill="#335EEA"></path>
        <rect id="Rectangle-7-Copy-2" fill="#335EEA" opacity="0.3" x="2" y="5" width="5" height="14" rx="1"></rect>
    </g>
</svg>

<svg width="24" height="24" viewBox="0 0 24 24" xmlns="http://www.w3.org/2000/svg"><g fill="none" fill-rule="evenodd"><path d="M0 0h24v24H0z"/><path d="M10.5 5h10A1.5 1.5 0 0122 6.5v3a1.5 1.5 0 01-1.5 1.5h-10A1.5 1.5 0 019 9.5v-3A1.5 1.5 0 0110.5 5zm0 8h10a1.5 1.5 0 011.5 1.5v3a1.5 1.5 0 01-1.5 1.5h-10A1.5 1.5 0 019 17.5v-3a1.5 1.5 0 011.5-1.5z" fill="#335EEA"/><rect fill="#335EEA" opacity=".3" x="2" y="5" width="5" height="14" rx="1"/></g></svg>
